X:1
T:The Great Judgment Day
T:The Great Judgment Day
T:Lelia Naylor Morris
T:Lelia Naylor Morris, 1908, alt.
T:Public Domain Courtesy of the Cyber Hymnal™
T:Public Domain Courtesy of the Cyber Hymnal™
C:Lelia Naylor Morris
Z:Public Domain
Z:Courtesy of the Cyber Hymnal™
%%score ( 1 2 ) ( 3 4 )
L:1/8
Q:1/4=95
M:3/4
K:Eb
V:1 treble 
V:2 treble 
V:3 bass 
V:4 bass 
V:1
 [GB]>[GB] | [GB]3 [EG] E>[EF] | [EG]2 [EG]2 [EB]>[EB] | [DB]3 [DA] [DF]>[Ac] | %4
w: 1.~Soon the|trum- pet sound ap-|pall- ing, And the|loud arch- an- gel|
w: 2.~We shall|see the Judge des-|cend- ing, And the|dead in Christ as-|
w: 3.~You’ll be|glad to have sal-|va- tion, When He|sum- mons ev- ery|
w: 4.~Some to|out- er dark- ness|go- ing, On their|fac- es ter- ror|
w: 5.~There’ll be|weep- ing, there’ll be|wail- ing, Un- be-|liev- ers trem- bling,|
w: 6.~There’ll be|shout- ing, there’ll be|sing- ing, There’ll be|joy in Hea- ven|
w: 7.~For the|Bride- groom’s glad re-|turn- ing, (Here at|last, our souls’ great|
w: 8.~Heed to-|day the ex- hor-|ta- tion, Heark- en,|ev- ery tribe and|
 [GB]2 [GB]2 [GB]>[GB] | [Ge]3 [GB] [Ac]>[Ac] | [GB]2 [EG]2 [FA]>[FA] | [EG]2 E2 [DF]2 | E4 || %9
w: call- ing, Shall up-|on our ears be|fall- ing, On the|great judg- ment|day.|
w: cend- ing, With the|heav’n- ly hosts at-|tend- ing, On the|great judg- ment|day.|
w: na- tion, To the|fi- nal sep- a-|ra- tion On the|great judg- ment|day.|
w: grow- ing; Some, to|drink from foun- tains|flow- ing, On the|great judg- ment|day.|
w: quail- ing, Tears and|cries— all un- a-|vail- ing, On the|great judg- ment|day.|
w: ring- ing, When the|King His own comes|bring- ing, On the|great judg- ment|day.|
w: yearn- ing!) Will our|lamps be trimmed and|burn- ing, On the|great judg- ment|day?|
w: na- tion, Now’s the|time for pre- pa-|ra- tion, For the|great judg- ment|day.|
"^Refrain" [FA]>[EG] | [DF]3 [Ac] [GB]>[FA] | [EG]2 [GB]2 [Ge]>[Ge] | [Fd]3 [Fc] [FB]>[F=A] | %13
w: ||||
w: ||||
w: ||||
w: ||||
w: ||||
w: ||||
w: ||||
w: ||||
 [FB]4 [AB]>[AB] | [Ge]3 [GB] [Ac]>[Ac] | [GB]2 [EG]2 [FA]>[FA] | [EG]2 E2 [DF]2 | E4 |] %18
w: |||||
w: |||||
w: |||||
w: |||||
w: |||||
w: |||||
w: |||||
w: |||||
V:2
 x2 | x4 E3/2 x/ | x6 | x6 | x6 | x6 | x6 | x2 E2 x2 | E4 || x2 | x6 | x6 | x6 | x6 | x6 | x6 | %16
 x2 E2 x2 | E4 |] %18
V:3
 [E,E]>[E,E] | [E,E]3 [E,B,] [E,G,]>[E,A,] | [E,B,]2 [E,B,]2 [E,G,]>[E,G,] | %3
w: |||
 [F,A,]3 [B,,B,] [B,,B,]>[B,,D] | [E,E]2 [E,E]2 [E,E]>[E,E] | [E,B,]3 [E,E] [A,E]>[A,E] | %6
w: |||
 [E,E]2 [E,B,]2 [A,C]>[A,C] | B,2 [B,,G,]2 [B,,A,]2 | [E,G,]4 || [B,,B,]>[B,,B,] | %10
w: |Are * *||you rea-|
 [B,,B,]3 [B,,B,] [B,,B,]>[B,,B,] | [E,B,]2 [E,E]2 [E,B,]>[E,B,] | [F,B,]3 [F,E] [F,D]>[F,E] | %13
w: dy, are you rea-|dy? O my bro-|ther, can we say|
 [B,,D]4 [B,D]>B, | [E,B,]3 [E,E] [A,E]>[A,E] | [E,E]2 [E,B,]2 [A,C]>[A,C] | %16
w: We are rea-|dy, ful- ly rea-|dy, For the great|
 B,2 [B,,G,]2 [B,,A,]2 | [E,G,]4 |] %18
w: judg- ment day?||
V:4
 x2 | x6 | x6 | x6 | x6 | x6 | x6 | B,2 x4 | x4 || x2 | x6 | x6 | x6 | x11/2 B,/ | x6 | x6 | %16
 B,2 x4 | x4 |] %18

